public/cloud-icons/azure/security/azure-firewall-security-partner-provider.svg

<?xml version="1.0" encoding="UTF-8" standalone="no"?>
<!-- Generated by Microsoft Visio, SVG Export Azure Firewall Security Partner Provider.svg Page-1 -->

<svg
   xmlns:dc="http://purl.org/dc/elements/1.1/"
   xmlns:cc="http://creativecommons.org/ns#"
   xmlns:rdf="http://www.w3.org/1999/02/22-rdf-syntax-ns#"
   xmlns:svg="http://www.w3.org/2000/svg"
   xmlns="http://www.w3.org/2000/svg"
   xmlns:sodipodi="http://sodipodi.sourceforge.net/DTD/sodipodi-0.dtd"
   xmlns:inkscape="http://www.inkscape.org/namespaces/inkscape"
   width="0.78740108in"
   height="0.66927409in"
   viewBox="0 0 56.692658 48.187753"
   xml:space="preserve"
   class="st9"
   version="1.1"
   id="svg88"
   sodipodi:docname="Azure Firewall Security Partner Provider.svg"
   style="font-size:12px;overflow:visible;color-interpolation-filters:sRGB;fill:none;fill-rule:evenodd;stroke-linecap:square;stroke-miterlimit:3"
   inkscape:version="0.92.5 (2060ec1f9f, 2020-04-08)"><metadata
   id="metadata92"><rdf:RDF><cc:Work
       rdf:about=""><dc:format>image/svg+xml</dc:format><dc:type
         rdf:resource="http://purl.org/dc/dcmitype/StillImage" /></cc:Work></rdf:RDF></metadata><sodipodi:namedview
   pagecolor="#ffffff"
   bordercolor="#666666"
   borderopacity="1"
   objecttolerance="10"
   gridtolerance="10"
   guidetolerance="10"
   inkscape:pageopacity="0"
   inkscape:pageshadow="2"
   inkscape:window-width="640"
   inkscape:window-height="480"
   id="namedview90"
   showgrid="false"
   inkscape:zoom="1.6400588"
   inkscape:cx="34.874785"
   inkscape:cy="26.591193"
   inkscape:window-x="0"
   inkscape:window-y="0"
   inkscape:window-maximized="0"
   inkscape:current-layer="svg88" />
	<style
   type="text/css"
   id="style2">
	<![CDATA[
		.st1 {fill:#e62323;stroke:none;stroke-linecap:butt;stroke-width:25.7179}
		.st2 {fill:#ff7381;stroke:none;stroke-linecap:butt;stroke-width:25.7179}
		.st3 {fill:#e62323;stroke:none;stroke-linecap:butt;stroke-width:27.6595}
		.st4 {fill:#821010;stroke:none;stroke-linecap:butt;stroke-width:25.7179}
		.st5 {fill:#e5e5e4;stroke:none;stroke-linecap:butt;stroke-width:17.3868}
		.st6 {fill:url(#grad0-24);stroke:none;stroke-linecap:butt;stroke-width:16.8856}
		.st7 {fill:#e62323;stroke:none;stroke-linecap:butt;stroke-width:16.8856}
		.st8 {fill:#ffffff;stroke:none;stroke-linecap:butt;stroke-width:16.8856}
		.st9 {fill:none;fill-rule:evenodd;font-size:12px;overflow:visible;stroke-linecap:square;stroke-miterlimit:3}
	]]>
	</style>

	<defs
   id="Patterns_And_Gradients">
		<linearGradient
   id="grad0-24"
   x1="-0.003136911"
   y1="102.56655"
   x2="24.165416"
   y2="102.56655"
   gradientTransform="scale(1.1743365,0.85154468)"
   gradientUnits="userSpaceOnUse">
			<stop
   offset="0"
   stop-color="#b3b2b3"
   stop-opacity="1"
   id="stop4" />
			<stop
   offset="0.38"
   stop-color="#b6b5b5"
   stop-opacity="1"
   id="stop6" />
			<stop
   offset="0.61"
   stop-color="#bebdbe"
   stop-opacity="1"
   id="stop8" />
			<stop
   offset="0.8"
   stop-color="#cccbcb"
   stop-opacity="1"
   id="stop10" />
			<stop
   offset="0.96"
   stop-color="#e0e0df"
   stop-opacity="1"
   id="stop12" />
			<stop
   offset="1"
   stop-color="#e5e5e4"
   stop-opacity="1"
   id="stop14" />
		</linearGradient>
	</defs>
	<g
   id="g86"
   transform="translate(-25.718123,-25.717149)">
		<title
   id="title18">Page-1</title>
		<g
   id="group18140-1"
   transform="translate(25.7179,-34.0157)">
			<title
   id="title20">Azure Firewall Security Partner Provider.18140</title>
			<g
   id="group18141-2">
				<title
   id="title22">layer1</title>
				<g
   id="shape18142-3"
   transform="translate(3.03056,-39.0675)">
					<title
   id="title24">path10-7</title>
					<path
   d="M 14.2,101.54 H 0.06 l -0.06,6.34 14.43,0.04 -0.23,-6.39 z"
   class="st1"
   id="path26"
   inkscape:connector-curvature="0"
   style="fill:#e62323;stroke:none;stroke-width:25.71789932;stroke-linecap:butt" />
				</g>
				<g
   id="shape18143-5"
   transform="translate(19.1617,-38.8158)">
					<title
   id="title29">path12-3</title>
					<path
   d="M 14.33,101.29 H 0.19 l -0.19,6.3 14.52,0.33 -0.19,-6.64 z"
   class="st2"
   id="path31"
   inkscape:connector-curvature="0"
   style="fill:#ff7381;stroke:none;stroke-width:25.71789932;stroke-linecap:butt" />
				</g>
				<g
   id="shape18144-7"
   transform="translate(3.08623,-31.4887)">
					<title
   id="title34">path14-3</title>
					<path
   d="M 46.67,93.96 H 32.53 l -0.04,6.73 14.99,-0.11 -0.62,-6.62 z M 5.89,101.97 H 0 v 5.95 h 5.89 z"
   class="st1"
   id="path36"
   inkscape:connector-curvature="0"
   style="fill:#e62323;stroke:none;stroke-width:25.71789932;stroke-linecap:butt" />
				</g>
				<g
   id="shape18145-9"
   transform="translate(11.0981,-31.4887)">
					<title
   id="title39">path16-9</title>
					<path
   d="m 38.66,101.97 h -5.89 v 5.95 h 5.89 z m -24.52,0 H 0 v 5.95 h 14.14 z"
   class="st2"
   id="path41"
   inkscape:connector-curvature="0"
   style="fill:#ff7381;stroke:none;stroke-width:25.71789932;stroke-linecap:butt" />
				</g>
				<g
   id="shape18146-11"
   transform="translate(2.83628,-23.2088)">
					<title
   id="title44">path18-1</title>
					<path
   d="M 38.67,93.69 H 24.53 v 5.95 l 15.65,0.14 -0.65,-6.11 z m -24.3,7.64 -14.16,0.02 -0.21,6.57 14.47,-0.04 0.36,-6.55 z"
   class="st1"
   id="path46"
   inkscape:connector-curvature="0"
   style="fill:#e62323;stroke:none;stroke-width:25.71789932;stroke-linecap:butt" />
				</g>
				<g
   id="shape18147-13"
   transform="translate(19.0694,-23.1112)">
					<title
   id="title49">path20-0</title>
					<path
   d="M 14.42,101.5 0.13,101.27 0,107.87 14.66,107.92 Z"
   class="st2"
   id="path51"
   inkscape:connector-curvature="0"
   style="fill:#ff7381;stroke:none;stroke-width:25.71789932;stroke-linecap:butt" />
				</g>
				<g
   id="shape18148-15"
   transform="translate(35.2115,-23.2082)">
					<title
   id="title54">path22-5</title>
					<rect
   x="0"
   y="101.346"
   width="14.8123"
   height="6.57722"
   class="st3"
   id="rect56"
   style="fill:#e62323;stroke:none;stroke-width:27.65950012;stroke-linecap:butt" />
				</g>
				<g
   id="shape18149-17"
   transform="translate(0,-20.6465)">
					<title
   id="title59">path8-5</title>
					<path
   d="m 50.28,107.92 a 1.98255,2.0061 -180 0 0 2.03,-1.95 V 82.34 A 1.98255,2.0061 -180 0 0 50.28,80.38 H 2.03 A 1.97999,2.00351 -180 0 0 0,82.34 v 23.63 a 1.97999,2.00351 -180 0 0 2.03,1.95 z M 49.76,97.08 h -5.89 v -5.96 h 5.89 z M 35.81,83.11 h 14.14 v 6.16 H 35.81 Z m 5.88,8.01 v 5.96 H 27.36 V 91.12 Z M 19.35,83.11 h 14.14 v 6.16 H 19.35 Z m 5.89,8.01 v 5.96 H 11.1 V 91.12 Z M 3.09,83.11 h 14.14 v 6.16 H 3.09 Z m 0,8.01 h 5.84 v 5.96 H 3.09 Z m 14.14,14.02 H 3.09 v -6.11 h 14.14 z m 16.26,0 H 19.35 v -6.11 h 14.14 z m 2.12,0 v -6.11 h 14.15 v 6.01 z"
   class="st4"
   id="path61"
   inkscape:connector-curvature="0"
   style="fill:#821010;stroke:none;stroke-width:25.71789932;stroke-linecap:butt" />
				</g>
				<g
   id="shape18150-19"
   transform="translate(28.5125,-0.305425)">
					<title
   id="title64">path1202-0</title>
					<ellipse
   cx="14.0902"
   cy="93.665604"
   rx="14.0902"
   ry="14.2576"
   class="st5"
   id="ellipse66"
   style="fill:#e5e5e4;stroke:none;stroke-width:17.38680077;stroke-linecap:butt" />
				</g>
				<g
   id="shape18151-21"
   transform="translate(28.3033)">
					<title
   id="title69">path20-06-7</title>
					<path
   d="m 28.35,91.86 h -8.24 a 0.317032,0.320798 -180 0 0 -0.318706,0.320797 L 19.79,96 a 0.380774,0.385297 0 0 1 -0.60052,0.254602 L 12.86,89.84 a 0.318709,0.322496 0 0 1 0,-0.448099 L 14.89,87.34 H 1.55 a 13.624,13.7858 -180 0 0 -1.53,6.41 12.2368,12.3821 -180 0 0 0,1.54 H 8.39 A 0.317032,0.320798 -180 0 0 8.707036,94.936948 L 8.71,91.03 A 0.348903,0.353048 0 0 1 9.31219,90.805952 L 15.64,97.21 a 0.348903,0.353048 0 0 1 0,0.482041 L 9.31,104.11 A 0.379097,0.3836 0 0 1 8.706132,103.852 L 8.7,100.23 A 0.315355,0.319101 -180 0 0 8.384642,99.876948 L 1.45,99.88 a 14.0685,14.2356 -180 0 0 12.67,8.04 14.1004,14.2679 -180 0 0 14.23,-14.26 13.9762,14.1423 -180 0 0 0,-1.8 z"
   class="st6"
   id="path71"
   inkscape:connector-curvature="0"
   style="fill:url(#grad0-24);stroke:none;stroke-width:16.88559914;stroke-linecap:butt" />
				</g>
				<g
   id="shape18152-25"
   transform="translate(41.0045,-11.4988)">
					<title
   id="title74">path40-7-8</title>
					<path
   d="M 8.55,98.65 H 7.41 A 0.286839,0.290246 0 0 1 7.108066,98.458198 0.285161,0.288549 0 0 1 7.0929444,98.329197 L 7.09,94.67 A 0.347226,0.35135 -180 0 0 6.487807,94.445949 L 5,95.95 2.12,98.9 0.09,100.95 a 0.317032,0.320798 -180 0 0 0,0.44979 L 6.43,107.82 a 0.379097,0.3836 -180 0 0 0.665938,-0.32249 L 7.09,103.68 a 0.317032,0.320798 0 0 1 0.317033,-0.3208 L 15.65,103.36 a 13.6894,13.852 -180 0 0 -1.39,-4.71 z"
   class="st7"
   id="path76"
   inkscape:connector-curvature="0"
   style="fill:#e62323;stroke:none;stroke-width:16.88559914;stroke-linecap:butt" />
				</g>
				<g
   id="shape18153-27"
   transform="translate(28.4225,-3.54915)">
					<title
   id="title79">path42-1-7</title>
					<path
   d="m 8.59,103.78 v 3.81 a 0.377419,0.381903 -180 0 0 0.419354,0.32928 0.379097,0.3836 -180 0 0 0.181158,-0.073 L 15.53,101.44 a 0.348903,0.353048 -180 0 0 0,-0.48035 L 9.19,94.54 A 0.347226,0.35135 -180 0 0 8.654905,94.57397 0.347226,0.35135 -180 0 0 8.587809,94.764076 L 8.59,98.58 A 0.318709,0.322496 0 0 1 8.272964,98.933046 L 0,98.94 c 0.16,1.63 0.61,3.21 1.33,4.68 h 6.94 a 0.315355,0.319101 0 0 1 0.318714,0.15955 z"
   class="st8"
   id="path81"
   inkscape:connector-curvature="0"
   style="fill:#ffffff;stroke:none;stroke-width:16.88559914;stroke-linecap:butt" />
				</g>
			</g>
		</g>
	</g>
</svg>

<svg xmlns="http://www.w3.org/2000/svg" xml:space="preserve" width="75.591" height="64.25" style="font-size:12px;overflow:visible;color-interpolation-filters:sRGB;fill-rule:evenodd;stroke-linecap:square;stroke-miterlimit:3" viewBox="0 0 56.693 48.188"><defs><linearGradient id="a" x1="-.003" x2="24.165" y1="102.567" y2="102.567" gradientTransform="scale(1.17434 .85154)" gradientUnits="userSpaceOnUse"><stop offset="0" stop-color="#b3b2b3"/><stop offset=".38" stop-color="#b6b5b5"/><stop offset=".61" stop-color="#bebdbe"/><stop offset=".8" stop-color="#cccbcb"/><stop offset=".96" stop-color="#e0e0df"/><stop offset="1" stop-color="#e5e5e4"/></linearGradient></defs><g transform="translate(-25.718 -25.717)"><title>Page-1</title><g transform="translate(25.718 -34.016)"><title>Azure Firewall Security Partner Provider.18140</title><title>layer1</title><g transform="translate(3.03 -39.068)"><title>path10-7</title><path d="M14.2 101.54H.06L0 107.88l14.43.04-.23-6.39z" style="fill:#e62323;stroke:none;stroke-width:25.71789932;stroke-linecap:butt"/></g><g transform="translate(19.162 -38.816)"><title>path12-3</title><path d="M14.33 101.29H.19l-.19 6.3 14.52.33-.19-6.64z" style="fill:#ff7381;stroke:none;stroke-width:25.71789932;stroke-linecap:butt"/></g><g transform="translate(3.086 -31.489)"><title>path14-3</title><path d="M46.67 93.96H32.53l-.04 6.73 14.99-.11-.62-6.62zm-40.78 8.01H0v5.95h5.89z" style="fill:#e62323;stroke:none;stroke-width:25.71789932;stroke-linecap:butt"/></g><g transform="translate(11.098 -31.489)"><title>path16-9</title><path d="M38.66 101.97h-5.89v5.95h5.89zm-24.52 0H0v5.95h14.14z" style="fill:#ff7381;stroke:none;stroke-width:25.71789932;stroke-linecap:butt"/></g><g transform="translate(2.836 -23.209)"><title>path18-1</title><path d="M38.67 93.69H24.53v5.95l15.65.14-.65-6.11zm-24.3 7.64-14.16.02-.21 6.57 14.47-.04.36-6.55z" style="fill:#e62323;stroke:none;stroke-width:25.71789932;stroke-linecap:butt"/></g><g transform="translate(19.07 -23.111)"><title>path20-0</title><path d="m14.42 101.5-14.29-.23-.13 6.6 14.66.05Z" style="fill:#ff7381;stroke:none;stroke-width:25.71789932;stroke-linecap:butt"/></g><g transform="translate(35.212 -23.208)"><title>path22-5</title><path d="M0 101.346h14.812v6.577H0z" style="fill:#e62323;stroke:none;stroke-width:27.65950012;stroke-linecap:butt"/></g><g transform="translate(0 -20.646)"><title>path8-5</title><path d="M50.28 107.92a1.983 2.006-180 0 0 2.03-1.95V82.34a1.983 2.006-180 0 0-2.03-1.96H2.03A1.98 2.004-180 0 0 0 82.34v23.63a1.98 2.004-180 0 0 2.03 1.95zm-.52-10.84h-5.89v-5.96h5.89zM35.81 83.11h14.14v6.16H35.81Zm5.88 8.01v5.96H27.36v-5.96Zm-22.34-8.01h14.14v6.16H19.35Zm5.89 8.01v5.96H11.1v-5.96ZM3.09 83.11h14.14v6.16H3.09Zm0 8.01h5.84v5.96H3.09Zm14.14 14.02H3.09v-6.11h14.14zm16.26 0H19.35v-6.11h14.14zm2.12 0v-6.11h14.15v6.01z" style="fill:#821010;stroke:none;stroke-width:25.71789932;stroke-linecap:butt"/></g><g transform="translate(28.512 -.305)"><title>path1202-0</title><ellipse cx="14.09" cy="93.666" rx="14.09" ry="14.258" style="fill:#e5e5e4;stroke:none;stroke-width:17.38680077;stroke-linecap:butt"/></g><g transform="translate(28.303)"><title>path20-06-7</title><path d="M28.35 91.86h-8.24a.317.32-180 0 0-.319.32L19.79 96a.38.385 0 0 1-.6.255l-6.33-6.415a.319.322 0 0 1 0-.448l2.03-2.052H1.55a13.624 13.786-180 0 0-1.53 6.41 12.237 12.382-180 0 0 0 1.54h8.37a.317.32-180 0 0 .317-.353l.003-3.907a.349.353 0 0 1 .602-.224l6.328 6.404a.349.353 0 0 1 0 .482l-6.33 6.418a.38.384 0 0 1-.604-.258L8.7 100.23a.315.32-180 0 0-.315-.353l-6.935.003a14.069 14.236-180 0 0 12.67 8.04 14.1 14.268-180 0 0 14.23-14.26 13.976 14.142-180 0 0 0-1.8" style="fill:url(#a);stroke:none;stroke-width:16.88559914;stroke-linecap:butt"/></g><g transform="translate(41.005 -11.499)"><title>path40-7-8</title><path d="M8.55 98.65H7.41a.287.29 0 0 1-.302-.192.285.289 0 0 1-.015-.129L7.09 94.67a.347.351-180 0 0-.602-.224L5 95.95 2.12 98.9l-2.03 2.05a.317.32-180 0 0 0 .45l6.34 6.42a.38.384-180 0 0 .666-.322l-.006-3.818a.317.32 0 0 1 .317-.32h8.243a13.69 13.852-180 0 0-1.39-4.71z" style="fill:#e62323;stroke:none;stroke-width:16.88559914;stroke-linecap:butt"/></g><g transform="translate(28.422 -3.55)"><title>path42-1-7</title><path d="M8.59 103.78v3.81a.377.382-180 0 0 .42.33.38.384-180 0 0 .18-.074l6.34-6.406a.349.353-180 0 0 0-.48l-6.34-6.42a.347.351-180 0 0-.535.034.347.351-180 0 0-.067.19l.002 3.816a.319.322 0 0 1-.317.353L0 98.94c.16 1.63.61 3.21 1.33 4.68h6.94a.315.32 0 0 1 .319.16z" style="fill:#fff;stroke:none;stroke-width:16.88559914;stroke-linecap:butt"/></g></g></g></svg>
